epam-assets/icon-sources/18/action-pin_on.svg

<svg xmlns="http://www.w3.org/2000/svg" width="18" height="18" fill="none" viewBox="0 0 18 18">
  <path fill="#6C6F80" d="m12 8.25 1.5 1.5v1.5H9.75v5.25h-1.5v-5.25H4.5v-1.5L6 8.25V3h-.75V1.5h7.5V3H12v5.25Z"/>
</svg>

<svg width="18" height="18" viewBox="0 0 18 18" fill="none" xmlns="http://www.w3.org/2000/svg">
<g id="18/action-pin_on">
<path id="icon" d="M12 8.25L13.5 9.75V11.25H9.75V16.5H9H8.25V11.25H4.5V9.75L6 8.25V3H5.25V1.5H12.75V3H12V8.25Z" fill="#6C6F80"/>
</g>
</svg>
